X:1
T:Title
%%score { ( 1 3 ) | ( 2 4 ) }
L:1/8
M:4/4
K:Ab
V:1 treble nm="Grand Piano"
V:3 treble 
V:2 bass 
V:4 bass 
V:1
 z4 z2[Q:1/4=100] [E,E]2 | [Cc]2 [Cc]2 [DB]2 [DA]>B | [Cc]2 [A,EA]2 [A,DF]2 [FA]2 | %3
 [CE]2 [CEA]2 [DGB]2 [FA]B |[M:3/4] [CAc]6 |[M:1/4] E2 |[M:4/4] [Cc]2 [Cc]2 [DB]2 [DA]>B | %7
 [Cc]2 [EA]2 [DF]2 [FA]2 | E2 A2 [DFA]2 [DGB]2 |[M:3/4] [CEA]6 |[M:1/4] B2 | %11
[M:4/4] [EGB]2 [EGe]2 [EG=d]2 [EGc]>B | [=DA]2 [DA=d]2 [DAc]2 FG | [B,=DA]2 AB [DAc]2 [DA=d]2 | %14
[M:3/4] [EGB]6[K:bass] |[M:1/4][K:treble] [B,B]2 |[M:4/4] [EGB]2 [EGe]2 [EG=d]2 [EGc]>B | %17
 [=DA]2 [DA=d]2 [DAc]2 [B,D]-[B,DG] | [B,=DA]2 [B,DA]>B [Dc]2 [FA=d]2 | %19
[M:9/8] e3- e- [EGBe]2- [EGBe] z z |[M:4/4] [CE]2 [CF]>G [CA]2 [CB]2 | z2 [EAce]4 z2 | %22
 [CE]2 [CF]>G [CA]2 [CB]>c | F6 z2 | [DFd]2 [DFd]>d [EGc]2 [EGB]2 | %25
[M:5/4] [EAe]2 [A,CA]6 [_C=DA]2 |[M:4/4] [CEA]2 Bc [DEGB]3 [CEA] |[M:3/4] [CEA]6 |] %28
V:2
 z8 | [A,,E,]2 [A,,E,]2 [A,,=E,]2 [A,,E,]2 | [A,,E,]2 C,2 D,2 D,2 | E,2 E,2 [E,,E,]2 z G | %4
[M:3/4] z2 E,>E, A,2 |[M:1/4] E,2 |[M:4/4] [A,,E,]2 [A,,E,]2 [A,,=E,]2 [A,,E,]2 | %7
 [A,,E,]2 [C,A,]2 [D,A,]2 [D,D]2 | [E,C]2 [E,CE]2 [E,,E,]2 [E,,E,]2 |[M:3/4] [A,,A,]2 E,2 A,,2 | %10
[M:1/4] B,2 |[M:4/4] [E,,E,]2 [B,,,B,,]2 [E,,E,]2 [B,,,B,,]2 | %12
 [F,,F,]2 [B,,,B,,]2 [F,,F,]2 [B,,,B,,]2 | [F,,F,]2 [B,,,B,,]2 [F,,F,]2 [B,,,B,,]2 | %14
[M:3/4] [E,,E,]2 B,,,2 E,,2 |[M:1/4] [B,,,B,,]2 |[M:4/4] [E,,E,]2 [A,,,B,,]2 [E,,E,]2 [B,,,B,,]2 | %17
 [F,,F,]2 [B,,,B,,]2 [F,,F,]2 [B,,,B,,]2 | [F,,F,]2 [B,,,B,,]2 [F,,F,]2 [B,,,B,,]2 | %19
[M:9/8] [E,,E,]3- [E,,E,] [E,B,D]2- [E,B,D] z z | %20
[M:4/4] [A,,E,A,]2 [A,,E,A,]2 [A,,E,A,]2 z z/[K:treble] c/ | A,,2 [E,A,C]2 [E,A,]2 [E,A,]2 | %22
 [A,,E,A,]2 [A,,E,A,]2 [A,,E,A,]2 [A,,E,A,]2 | [D,,D,]2 [D,,D,]2 [C,,C,]2 [C,,C,]2 | %24
 [B,,,B,,]2 [B,,,B,,]2 [E,,E,]2 [D,,D,]2 |[M:5/4] [C,,C,]2 [F,,F,]6 [=E,,=E,]2 | %26
[M:4/4] [E,,E,]2 z2 [E,,E,]3 [A,,,A,,] |[M:3/4] [A,,,A,,]6 |] %28
V:3
 x8 | x8 | x8 | z4 z2 D2 |[M:3/4] x6 |[M:1/4] x2 |[M:4/4] x8 | x8 | x8 |[M:3/4] x6 |[M:1/4] x2 | %11
[M:4/4] x8 | z4 z2 [B,=D]2 | z2 [B,=D]2 z4 |[M:3/4] z2[K:bass] B,,2 E,2 |[M:1/4][K:treble] x2 | %16
[M:4/4] x8 | z4 z2 .F2 | x8 |[M:9/8] .[EG]6 z3 |[M:4/4] x8 | [EAce]2 z2 C2 C2 | x8 | %23
 [A,D]2 [A,D]2 [=A,E]2 [A,E]2 | x8 |[M:5/4] x10 |[M:4/4] x8 |[M:3/4] x6 |] %28
V:4
 x8 | x8 | x8 | z4 z2 [E,,E,]2 |[M:3/4] A,,6 |[M:1/4] x2 |[M:4/4] x8 | x8 | x8 |[M:3/4] x6 | %10
[M:1/4] x2 |[M:4/4] x8 | x8 | x8 |[M:3/4] x6 |[M:1/4] x2 |[M:4/4] x8 | x8 | x8 |[M:9/8] x9 | %20
[M:4/4] z4 z2 [A,,E,A,]2[K:treble] | x8 | x8 | x8 | x8 |[M:5/4] x10 |[M:4/4] x8 |[M:3/4] x6 |] %28

